X: 1
T: About Time
T: 8x32J 3C (Stewart Adam, Edinburgh 90)
P: John Renton's "Rolls"
C: Moira Reekie
C: Arr. T. Traub 8-23-2015
R: Jig
M: 6/8
K: D
L: 1/8
|: G|"D"FAd dcd|"A"ede "D"fef|"G"gfg "D"afd|"A"ecA A2 G|"D"FAd "Bm"dcd|"A"ede "D"fef|"G"gfg "D"afd |"A"ABc "D"d2 :|
f/g/|"D"a3 a2 f|"Em"g3 "A"g2 e|"Bm"fdB "E7"Bcd|"A"ecA A2 f/g/|"D"aAa AaA|"G"gAg "A7"AgA|"Bm"Bcd "A"ecA|"D"d3 dfg||
"D"a3 a2 f|"Em"g3 "A"g2 e|"Bm"fdB "E7"Bcd|"A"ecA A2 G|"D"FAd "Bm"dcd|"A"ede "Bm"fef|"Em"gfg "D"afd|"A"ABc "D"d2 |]
